X:1
T:Title
%%score 1 { 2 | 3 }
L:1/8
Q:1/4=100
M:4/4
K:D
V:1 treble nm="Grand Piano, Soprano"
V:2 treble nm="Choir Pad, From the Cyber Hymnal™"
V:3 bass 
V:1
 D[DG] [GB]2 [GB]>[G^A] [GB]2 | [DG][DG] [EA]2 [EG]>[=CE] [B,D]2 | [DG][GB] [Gd]2 [Gd]>[Gc] [Gd]2 | %3
w: By~John~B.~Vaughan,~1906 * * * * *|||
 [Ge]>[GB] [Fd]6 | [Fd][Fd] [GB]2 [GB]>[G^A] [GB]2 | [DG][DG] [EA]2 [EG]>[=CE] [B,D]2 | %6
w: |||
 [DG][GB] [Gd]2 [Gd]>[DB] [EG]2 | [FA]>[DFA] [DG]6 | [DG][GB] [Gd]2 [Gd]>[Gc] [Gd]2 | %9
w: |||
 [GB][Gd] [Ge]2 [GB]>[F^A] [GB]2 | [DG][DG] [Gd]2 [Gd]>[GB] [FA]2 | [Gc]>[Gc] [Fd]6 | %12
w: |||
 [Fd][Fd] [GB]2 [GB]>[G^A] [GB]2 | [DG][DG] [EA]2 [EG]>[=CE] [B,D]2 | %14
w: ||
 [DG][GB] [Gd]2 [Gd]>[DB] [EG]2 | [FA]>[DFA] [DG]6- | [DG]2 z2 z4 |] %17
w: |||
V:2
 B,B, D2 D>C D2 | G,G, =C2 C>G, G,2 | B,D B,2 B,>^A, B,2 | B,>F, A,6 | =CC D2 D>^C D2 | %5
 G,G, =C2 C>G, G,2 | B,D B,2 B,>G, B,2 | =C>C B,6 | B,D[K:bass] B,2 B,>^A, B,2 | %9
 DB, B,2[K:treble] E>E E2 | B,B, B,2 B,>D D2 | E>E D2 A,>A, =C2 | =CC D2 D>^C D2 | %13
 G,G, =C2 C>G, G,2 | B,D B,2 B,>G, B,2 | =C>C B,6- | B,2 z2 z4 |] %17
V:3
 G,G, G,2 G,>G, G,2 | B,,B,, =C,2 C,>C, G,,2 | G,G, G,2 G,>G, G,2 | E,>D, D,6 | %4
 A,A, G,2 G,>G, G,2 | B,,B,, =C,2 C,>C, G,,2 | G,G, G,2 G,2 E,2 | D,>D, [G,,G,]6 | %8
 G,G, G,2 G,>G, G,2 | G,G, E,2 E,>E, E,2 | G,G, G,2 G,>G, D,2 | A,,>A,, D,2 D,>E, F,2 | %12
 A,A, G,2 G,>G, G,2 | B,,B,, =C,2 C,>C, G,,2 | G,G, G,2 G,2 E,2 | D,>D, [G,,G,]6- | %16
 [G,,G,]2 z2 z4 |] %17

